X:1748
T:Väntanpolska, motmelodi
R:Polska
C:Anton Teljebäck
Z:Anton Teljebäck
M:3/4
L:1/8
K:Dm
|:D3c Ac | D3F E2 | D3c Ac | F2E2A2 | D3c Ac | D3F E2 | D3c Ac | F2E2 A2 :|
|:=B2A2G2 | A4A2 | =B2A2B2 | ^c6 | | D3c Ac | D3F E2 | D3c Ac | F2E2A2 :|





(:musicend:)


(:music:)
